lib/logo_tmp/nrk-logo-nrk-p2-title-below.svg

<svg width="40" height="36" viewBox="0 0 40 36" fill="none" xmlns="http://www.w3.org/2000/svg">
<path d="M0 15.0033V1.00459H4.59339V15.0033H0ZM10.8428 3.23256L13.4844 15.0033H8.45737L5.30307 1.00459H8.12254C8.76907 0.996197 9.39641 1.22411 9.88691 1.64544C10.3782 2.04909 10.7158 2.60946 10.8428 3.23256ZM14.1744 15.0033V1.00459H18.7678V15.0033H14.1744ZM22.2372 6.3281C21.7422 6.33292 21.2552 6.20342 20.828 5.95344C20.4064 5.70979 20.0563 5.3596 19.8127 4.93801C19.5624 4.5107 19.4329 4.02354 19.4378 3.52835C19.4321 3.03619 19.5618 2.55193 19.8127 2.12848C20.0589 1.71147 20.4086 1.36509 20.828 1.12292C21.2553 0.873236 21.7423 0.74375 22.2372 0.748264C22.7292 0.742965 23.2133 0.872567 23.6369 1.12292C24.0521 1.36721 24.3981 1.7133 24.6424 2.12848C24.893 2.55204 25.0226 3.03623 25.0172 3.52835C25.0218 4.0235 24.8923 4.51058 24.6424 4.93801C24.4007 5.35775 24.0542 5.70764 23.6369 5.95344C23.2133 6.20429 22.7289 6.33392 22.2366 6.3281H22.2372ZM25.7269 15.0033V1.00459H30.3207V15.0033H25.7269ZM36.136 8.65459C36.1489 8.66817 36.2475 8.82918 36.4317 9.13763C36.6159 9.44609 36.8558 9.84045 37.1513 10.3207C37.447 10.8006 37.759 11.3099 38.0874 11.8486C38.4157 12.3873 38.7247 12.8967 39.0143 13.3767C39.3028 13.8567 39.6313 14.3989 40 15.0033H34.9531C34.6375 14.4907 34.3515 14.0274 34.0952 13.6133C33.8389 13.1993 33.5665 12.7523 33.2778 12.2726C32.9884 11.7932 32.7024 11.3266 32.4196 10.8727C32.1368 10.4188 31.8938 10.0212 31.6905 9.67988C31.4863 9.33835 31.3449 9.10829 31.2663 8.98977C31.0713 8.69567 30.9559 8.35599 30.9315 8.00395C30.951 7.66607 31.0597 7.33946 31.2466 7.05728C31.3254 6.92583 31.47 6.69248 31.6803 6.3573C31.8906 6.02212 32.137 5.62454 32.4196 5.16449C32.7021 4.70444 32.9882 4.23452 33.2778 3.75475C33.5674 3.27499 33.8398 2.82476 34.0952 2.40414C34.3519 1.98396 34.6379 1.51733 34.9531 1.00427H40L36.0962 7.37273C35.9754 7.56181 35.9073 7.77972 35.8991 8.00395C35.9121 8.23936 35.9942 8.46569 36.1353 8.65459H36.136Z" fill="white"/>
<path d="M9.52015 22.8171C9.27758 22.443 8.96587 22.1183 8.60167 21.8605C8.19598 21.577 7.74543 21.3636 7.26879 21.2295C6.69002 21.07 6.09138 20.9938 5.49105 21.0031H0V35.003H2.07398V29.9748H5.64938C6.45619 29.987 7.25238 29.79 7.96006 29.403C8.63833 29.0279 9.2016 28.4757 9.58959 27.8055C10.0056 27.066 10.2138 26.228 10.1921 25.3802C10.1938 24.922 10.1408 24.4653 10.0344 24.0196C9.93158 23.5929 9.75776 23.1864 9.52015 22.8171ZM7.68318 27.0664C7.41799 27.4823 7.02735 27.8034 6.56755 27.9833C6.00947 28.1941 5.41564 28.2946 4.81915 28.2791H2.07366V22.7185H5.09603C5.67324 22.6968 6.24775 22.808 6.77498 23.0436C7.1943 23.2459 7.53706 23.5778 7.75238 23.99C7.98073 24.4524 8.0927 24.9634 8.07861 25.4788C8.10135 26.0348 7.9641 26.5857 7.68318 27.0664Z" fill="white"/>
<path d="M14.2152 33.3069C14.5279 33.0394 14.8492 32.7607 15.189 32.459C15.663 32.0386 16.1404 31.5818 16.621 31.0886C17.1017 30.5954 17.5592 30.0829 17.9938 29.5509C18.416 29.036 18.8021 28.4926 19.1493 27.9245C19.4736 27.3966 19.7386 26.8344 19.9393 26.2484C20.1257 25.7091 20.2225 25.1429 20.2258 24.5724C20.2351 24.0397 20.1273 23.5114 19.9097 23.0249C19.6942 22.5653 19.3767 22.1607 18.9814 21.8418C18.529 21.4839 18.0081 21.222 17.4506 21.0724C16.7654 20.8854 16.0572 20.7958 15.347 20.8062C14.8868 20.805 14.4274 20.8446 13.9742 20.9245C13.5431 21.0008 13.12 21.1164 12.7101 21.2699C12.3192 21.416 11.9396 21.5905 11.5743 21.7921L11.8311 23.5076C12.1439 23.2983 12.4783 23.1231 12.8286 22.9851C13.2091 22.8324 13.6024 22.7136 14.0039 22.6301C14.4131 22.5447 14.8301 22.5019 15.2482 22.5023C15.6861 22.4934 16.1227 22.5531 16.542 22.6794C16.876 22.7816 17.183 22.9567 17.4407 23.1921C17.6727 23.4082 17.8518 23.6747 17.9641 23.971C18.079 24.2835 18.1359 24.6142 18.132 24.947C18.1254 25.5058 18.0115 26.058 17.7963 26.5738C17.5463 27.1796 17.2282 27.7551 16.8482 28.2893C16.4057 28.917 15.9241 29.5163 15.4063 30.0836C14.8532 30.6949 14.2508 31.3062 13.599 31.9174C12.9472 32.5287 12.2722 33.1498 11.5743 33.7808L11.8311 35.0033H20.3838L20.6208 33.3072L14.2152 33.3069Z" fill="white"/>
</svg>

<svg xmlns="http://www.w3.org/2000/svg" viewBox="0 0 40 36"><path fill="#fff" d="M0 15.003V1.005h4.593v13.998H0Zm10.843-11.77 2.641 11.77H8.457L5.303 1.005h2.82a2.655 2.655 0 0 1 1.764.64c.491.404.829.964.956 1.588Zm3.331 11.77V1.005h4.594v13.998h-4.594Zm8.063-8.675a2.737 2.737 0 0 1-1.409-.375 2.778 2.778 0 0 1-1.015-1.015 2.735 2.735 0 0 1-.375-1.41 2.685 2.685 0 0 1 .375-1.4 2.812 2.812 0 0 1 3.824-1.005c.415.244.761.59 1.005 1.005.251.424.38.908.375 1.4.005.496-.125.983-.375 1.41a2.8 2.8 0 0 1-1.005 1.015c-.424.251-.908.38-1.4.375Zm3.49 8.675V1.005h4.594v13.998h-4.594Zm10.409-6.348c.013.013.111.174.296.483.184.308.424.702.72 1.183a377.185 377.185 0 0 1 1.862 3.056c.289.48.617 1.022.986 1.626h-5.047l-.858-1.39c-.256-.414-.529-.86-.817-1.34-.29-.48-.576-.946-.858-1.4a71.06 71.06 0 0 1-.73-1.193 21.112 21.112 0 0 0-.424-.69 2.04 2.04 0 0 1-.334-.986c.019-.338.128-.665.315-.947.078-.131.223-.365.433-.7a216.7 216.7 0 0 0 1.598-2.603l.817-1.35.858-1.4H40l-3.904 6.369c-.12.189-.189.407-.197.63.013.236.095.463.236.652h.001ZM9.52 22.817a3.515 3.515 0 0 0-.918-.957 4.414 4.414 0 0 0-1.333-.63 6.323 6.323 0 0 0-1.778-.227H0v14h2.074v-5.028h3.575a4.669 4.669 0 0 0 2.311-.572 4.271 4.271 0 0 0 1.63-1.598c.416-.739.624-1.577.602-2.425a5.767 5.767 0 0 0-.158-1.36 3.92 3.92 0 0 0-.514-1.203Zm-1.837 4.25a2.33 2.33 0 0 1-1.115.916 4.61 4.61 0 0 1-1.749.296H2.074v-5.56h3.022a3.768 3.768 0 0 1 1.679.325c.42.202.762.534.977.946.229.462.34.973.327 1.489a2.91 2.91 0 0 1-.396 1.587ZM14.215 33.307c.313-.268.634-.546.974-.848.474-.42.951-.877 1.432-1.37.48-.494.938-1.006 1.373-1.538.422-.515.808-1.058 1.155-1.627.325-.527.59-1.09.79-1.676.187-.539.284-1.105.287-1.676a3.635 3.635 0 0 0-.316-1.547 3.345 3.345 0 0 0-.929-1.183 4.237 4.237 0 0 0-1.53-.77 7.57 7.57 0 0 0-2.104-.266 7.79 7.79 0 0 0-1.373.118 7.165 7.165 0 0 0-1.264.346c-.39.146-.77.32-1.136.522l.257 1.716c.313-.21.647-.385.998-.523.38-.153.773-.271 1.175-.355.41-.085.826-.128 1.244-.128a4.19 4.19 0 0 1 1.294.177c.334.103.641.278.899.513.232.216.41.483.523.779.115.313.172.643.168.976a4.358 4.358 0 0 1-.336 1.627 8.657 8.657 0 0 1-.948 1.715 18.315 18.315 0 0 1-1.442 1.795 31.403 31.403 0 0 1-1.807 1.833c-.652.612-1.327 1.233-2.025 1.864l.257 1.222h8.553l.237-1.696h-6.406Z"/></svg>
